images/ICONOS/DETALLES/TICKS.svg

<svg width="27" height="122" viewBox="0 0 27 122" fill="none" xmlns="http://www.w3.org/2000/svg">
<path d="M-7 105.312C-7 104.378 -6.639 103.444 -5.91699 102.735C-4.47297 101.318 -2.12645 101.318 -0.666026 102.735L10 113.205L20.666 102.735C22.11 101.318 24.4566 101.318 25.917 102.735C27.361 104.153 27.361 106.456 25.917 107.89L12.6255 120.937C11.1815 122.354 8.83494 122.354 7.37451 120.937L-5.91699 107.89C-6.639 107.181 -7 106.247 -7 105.312Z" fill="url(#paint0_linear_173_1579)"/>
<path d="M-7 84.9683C-7 84.0341 -6.639 83.0998 -5.91699 82.3911C-4.47297 80.9736 -2.12645 80.9736 -0.666025 82.3911L10 92.8611L20.666 82.3911C22.11 80.9736 24.4566 80.9736 25.917 82.3911C27.361 83.8085 27.361 86.112 25.917 87.5455L12.6255 100.593C11.1815 102.01 8.83494 102.01 7.37451 100.593L-5.91699 87.5455C-6.639 86.8368 -7 85.9026 -7 84.9683Z" fill="url(#paint1_linear_173_1579)"/>
<path d="M-7 64.6403C-7 63.7061 -6.639 62.7718 -5.91699 62.0631C-4.47297 60.6456 -2.12645 60.6456 -0.666024 62.0631L10 72.5331L20.666 62.0631C22.11 60.6456 24.4566 60.6456 25.917 62.0631C27.361 63.4806 27.361 65.784 25.917 67.2176L12.6255 80.2648C11.1815 81.6823 8.83494 81.6823 7.37452 80.2648L-5.91699 67.2176C-6.639 66.5088 -7 65.5746 -7 64.6403Z" fill="url(#paint2_linear_173_1579)"/>
<path d="M-7 44.3124C-7 43.3781 -6.63899 42.4439 -5.91699 41.7351C-4.47297 40.3177 -2.12645 40.3177 -0.666023 41.7351L10 52.2052L20.666 41.7351C22.11 40.3177 24.4566 40.3177 25.917 41.7351C27.361 43.1526 27.361 45.456 25.917 46.8896L12.6255 59.9369C11.1815 61.3544 8.83494 61.3544 7.37452 59.9369L-5.91699 46.8896C-6.63899 46.1809 -7 45.2466 -7 44.3124Z" fill="url(#paint3_linear_173_1579)"/>
<path d="M-7 23.9683C-7 23.0341 -6.63899 22.0998 -5.91699 21.3911C-4.47297 19.9736 -2.12645 19.9736 -0.666022 21.3911L10 31.8611L20.666 21.3911C22.11 19.9736 24.4566 19.9736 25.917 21.3911C27.361 22.8086 27.361 25.112 25.917 26.5455L12.6255 39.5928C11.1815 41.0103 8.83494 41.0103 7.37452 39.5928L-5.91699 26.5455C-6.63899 25.8368 -7 24.9026 -7 23.9683Z" fill="url(#paint4_linear_173_1579)"/>
<path d="M-7 3.64035C-7 2.7061 -6.63899 1.77185 -5.91698 1.06311C-4.47297 -0.354372 -2.12645 -0.354372 -0.666021 1.06311L10 11.5331L20.666 1.06311C22.11 -0.35437 24.4566 -0.35437 25.917 1.06311C27.361 2.48059 27.361 4.784 25.917 6.21759L12.6255 19.2649C11.1815 20.6823 8.83494 20.6823 7.37452 19.2649L-5.91698 6.21758C-6.63899 5.50884 -7 4.5746 -7 3.64035Z" fill="url(#paint5_linear_173_1579)"/>
<defs>
<linearGradient id="paint0_linear_173_1579" x1="-7.00077" y1="-1.48622e-06" x2="-7.00078" y2="122" gradientUnits="userSpaceOnUse">
<stop stop-color="#1723FF"/>
<stop offset="1" stop-color="#30E35E"/>
</linearGradient>
<linearGradient id="paint1_linear_173_1579" x1="-7.00077" y1="-1.48622e-06" x2="-7.00078" y2="122" gradientUnits="userSpaceOnUse">
<stop stop-color="#1723FF"/>
<stop offset="1" stop-color="#30E35E"/>
</linearGradient>
<linearGradient id="paint2_linear_173_1579" x1="-7.00077" y1="-1.48622e-06" x2="-7.00078" y2="122" gradientUnits="userSpaceOnUse">
<stop stop-color="#1723FF"/>
<stop offset="1" stop-color="#30E35E"/>
</linearGradient>
<linearGradient id="paint3_linear_173_1579" x1="-7.00077" y1="-1.48622e-06" x2="-7.00078" y2="122" gradientUnits="userSpaceOnUse">
<stop stop-color="#1723FF"/>
<stop offset="1" stop-color="#30E35E"/>
</linearGradient>
<linearGradient id="paint4_linear_173_1579" x1="-7.00077" y1="-1.48622e-06" x2="-7.00078" y2="122" gradientUnits="userSpaceOnUse">
<stop stop-color="#1723FF"/>
<stop offset="1" stop-color="#30E35E"/>
</linearGradient>
<linearGradient id="paint5_linear_173_1579" x1="-7.00077" y1="-1.48622e-06" x2="-7.00078" y2="122" gradientUnits="userSpaceOnUse">
<stop stop-color="#1723FF"/>
<stop offset="1" stop-color="#30E35E"/>
</linearGradient>
</defs>
</svg>

<svg width="27" height="122" fill="none" xmlns="http://www.w3.org/2000/svg"><path d="M-7 105.312a3.6 3.6 0 0 1 1.083-2.577c1.444-1.417 3.79-1.417 5.251 0L10 113.205l10.666-10.47c1.444-1.417 3.79-1.417 5.251 0a3.609 3.609 0 0 1 0 5.155l-13.292 13.047c-1.444 1.417-3.79 1.417-5.25 0L-5.917 107.89A3.6 3.6 0 0 1-7 105.312Z" fill="url(#a)"/><path d="M-7 84.968a3.6 3.6 0 0 1 1.083-2.577c1.444-1.417 3.79-1.417 5.251 0L10 92.861l10.666-10.47c1.444-1.417 3.79-1.417 5.251 0a3.608 3.608 0 0 1 0 5.154l-13.292 13.048c-1.444 1.417-3.79 1.417-5.25 0L-5.917 87.546A3.6 3.6 0 0 1-7 84.968Z" fill="url(#b)"/><path d="M-7 64.64a3.6 3.6 0 0 1 1.083-2.577c1.444-1.417 3.79-1.417 5.251 0L10 72.533l10.666-10.47c1.444-1.417 3.79-1.417 5.251 0a3.608 3.608 0 0 1 0 5.155L12.625 80.265c-1.444 1.417-3.79 1.417-5.25 0L-5.917 67.218A3.6 3.6 0 0 1-7 64.64Z" fill="url(#c)"/><path d="M-7 44.312a3.6 3.6 0 0 1 1.083-2.577c1.444-1.417 3.79-1.417 5.251 0L10 52.205l10.666-10.47c1.444-1.417 3.79-1.417 5.251 0a3.608 3.608 0 0 1 0 5.155L12.625 59.937c-1.444 1.417-3.79 1.417-5.25 0L-5.917 46.89A3.6 3.6 0 0 1-7 44.312Z" fill="url(#d)"/><path d="M-7 23.968a3.6 3.6 0 0 1 1.083-2.577c1.444-1.417 3.79-1.417 5.251 0L10 31.861l10.666-10.47c1.444-1.417 3.79-1.417 5.251 0a3.608 3.608 0 0 1 0 5.155L12.625 39.593c-1.444 1.417-3.79 1.417-5.25 0L-5.917 26.545A3.6 3.6 0 0 1-7 23.968Z" fill="url(#e)"/><path d="M-7 3.64a3.6 3.6 0 0 1 1.083-2.577c1.444-1.417 3.79-1.417 5.251 0L10 11.533l10.666-10.47c1.444-1.417 3.79-1.417 5.251 0a3.608 3.608 0 0 1 0 5.155L12.625 19.265c-1.444 1.417-3.79 1.417-5.25 0L-5.917 6.218A3.6 3.6 0 0 1-7 3.64Z" fill="url(#f)"/><defs><linearGradient id="a" x1="-7.001" y1="0" x2="-7.001" y2="122" gradientUnits="userSpaceOnUse"><stop stop-color="#1723FF"/><stop offset="1" stop-color="#30E35E"/></linearGradient><linearGradient id="b" x1="-7.001" y1="0" x2="-7.001" y2="122" gradientUnits="userSpaceOnUse"><stop stop-color="#1723FF"/><stop offset="1" stop-color="#30E35E"/></linearGradient><linearGradient id="c" x1="-7.001" y1="0" x2="-7.001" y2="122" gradientUnits="userSpaceOnUse"><stop stop-color="#1723FF"/><stop offset="1" stop-color="#30E35E"/></linearGradient><linearGradient id="d" x1="-7.001" y1="0" x2="-7.001" y2="122" gradientUnits="userSpaceOnUse"><stop stop-color="#1723FF"/><stop offset="1" stop-color="#30E35E"/></linearGradient><linearGradient id="e" x1="-7.001" y1="0" x2="-7.001" y2="122" gradientUnits="userSpaceOnUse"><stop stop-color="#1723FF"/><stop offset="1" stop-color="#30E35E"/></linearGradient><linearGradient id="f" x1="-7.001" y1="0" x2="-7.001" y2="122" gradientUnits="userSpaceOnUse"><stop stop-color="#1723FF"/><stop offset="1" stop-color="#30E35E"/></linearGradient></defs></svg>
